resources/images/footer/mgc_icons_dhl.svg

<?xml version="1.0" encoding="utf-8"?>
<!-- Generator: Adobe Illustrator 22.0.1, SVG Export Plug-In . SVG Version: 6.00 Build 0)  -->
<svg version="1.1" id="Ebene_1" xmlns="http://www.w3.org/2000/svg" xmlns:xlink="http://www.w3.org/1999/xlink" x="0px" y="0px"
	 viewBox="0 0 112 15.9" style="enable-background:new 0 0 112 15.9;" xml:space="preserve">
<style type="text/css">
	.st0{fill:#FFFFFF;}
	.st1{fill:#179BD7;}
	.st2{fill:#222D65;}
	.st3{fill:#253B80;}
	.st4{fill:#EE7F00;}
	.st5{fill:#D8D8D8;}
	.st6{fill:#FF9900;}
	.st7{fill:#FAA61A;}
	.st8{fill:#F79410;}
	.st9{fill:#FF5F00;}
	.st10{fill:#EB001B;}
	.st11{fill:#F79E1B;}
	.st12{fill:#FF6600;}
	.st13{fill:#E0B646;}
	.st14{fill:#E40520;}
	.st15{fill-rule:evenodd;clip-rule:evenodd;fill:#E0B646;}
</style>
<path class="st0" d="M74,10.5c0,0-0.8,1-1.1,1.5c-1.3,1.7-0.1,3.8,4.1,3.8c4.8,0,16.5,0,16.5,0l3.9-5.3H74z M85.8,9.4L92.6,0H81.8
	l-6.9,9.4H85.8z M99.3,10.5l-0.8,1.1H112v-1.1H99.3z M95.4,15.9H112v-1.1H96.2L95.4,15.9z M96.9,13.8H112v-1.1H97.7L96.9,13.8z
	 M0,15.9h12.8l0.8-1.1H0V15.9z M16.7,10.5H0v1.1h15.9L16.7,10.5z M0,12.6v1.1h14.3l0.8-1.1H0z M56.5,15.9h10.3l3.9-5.3H60.4
	C60.4,10.5,56.5,15.9,56.5,15.9z M68.2,0l-4,5.4h-4.6l4-5.4H53.3l-6.9,9.4h25.2L78.4,0H68.2z M41.7,15.9h10.3l3.9-5.3H45.6
	C45.6,10.5,41.7,15.9,41.7,15.9z M30.3,10.5c-1.5,0-1.1-0.6-0.8-1c0.5-0.7,1.3-1.8,1.8-2.5c0.5-0.6,0.5-1-0.5-1c-1,0-8.9,0-8.9,0
	l-7.2,9.8c0,0,12.8,0,17.5,0c5.8,0,9-4,10-5.3C42.2,10.5,31.9,10.5,30.3,10.5z M36.1,5.9c-0.5,0.6-1.3,1.8-1.8,2.5
	c-0.3,0.3-0.7,1,0.8,1c1.6,0,8,0,8,0s1.3-1.7,2.4-3.2C47,4.1,45.6,0,40.4,0c-4.7,0-20.6,0-20.6,0l-3.6,4.8c0,0,18.5,0,19.5,0
	C36.6,4.8,36.6,5.2,36.1,5.9z"/>
</svg>

<svg id="Ebene_1" data-name="Ebene 1" xmlns="http://www.w3.org/2000/svg" viewBox="0 0 112 15.9">
  <defs>
    <style>
      .cls-1 {
        fill: #fff;
      }
    </style>
  </defs>
  <title>mgc_icons</title>
  <path class="cls-1" d="M74,10.5,72.9,12c-1.3,1.8-.1,3.8,4.1,3.8H93.5l3.9-5.3ZM85.8,9.4,92.6,0H81.8L74.9,9.4Zm13.5,1.1-.9,1.2H112V10.5Zm-3.9,5.4H112V14.7H96.2Zm1.5-2.1H112V12.6H97.7ZM0,15.9H12.8l.8-1.2H0Zm16.7-5.4H0v1.2H15.9ZM0,12.6v1.2H14.3l.9-1.2Zm56.5,3.3H66.8l3.9-5.3H60.4ZM68.2,0l-4,5.4H59.6l4-5.4H53.3L46.5,9.4H71.6L78.4,0ZM41.7,15.9H51.9l3.9-5.3H45.6ZM30.3,10.5c-1.6,0-1.1-.6-.9-.9l1.9-2.5c.5-.7.5-1-.5-1H21.9l-7.2,9.8H32.2a12.6,12.6,0,0,0,10-5.3Zm5.8-4.6L34.3,8.3c-.2.4-.7,1,.9,1h7.9l2.4-3.2C47,4.1,45.6,0,40.4,0H19.8L16.2,4.8H35.7C36.6,4.8,36.6,5.2,36.1,5.9Z"/>
</svg>
